static/images/pieces/xiangqi/wikim/black_horse.svg

<?xml version="1.0" encoding="UTF-8" standalone="no"?>
<svg
   width="100"
   height="100"
   version="1.1"
   id="svg534"
   sodipodi:docname="black_horse.svg"
   viewBox="-6 -6 112 112"
   inkscape:version="1.2.2 (b0a8486541, 2022-12-01)"
   xmlns:inkscape="http://www.inkscape.org/namespaces/inkscape"
   xmlns:sodipodi="http://sodipodi.sourceforge.net/DTD/sodipodi-0.dtd"
   xmlns="http://www.w3.org/2000/svg"
   xmlns:svg="http://www.w3.org/2000/svg"
   xmlns:rdf="http://www.w3.org/1999/02/22-rdf-syntax-ns#"
   xmlns:cc="http://creativecommons.org/ns#"
   xmlns:dc="http://purl.org/dc/elements/1.1/">
  <defs
     id="defs538" />
  <sodipodi:namedview
     id="namedview536"
     pagecolor="#ffffff"
     bordercolor="#666666"
     borderopacity="1.0"
     inkscape:showpageshadow="2"
     inkscape:pageopacity="0.0"
     inkscape:pagecheckerboard="0"
     inkscape:deskcolor="#d1d1d1"
     showgrid="false"
     inkscape:zoom="2.36"
     inkscape:cx="50.211864"
     inkscape:cy="50"
     inkscape:window-width="1920"
     inkscape:window-height="1022"
     inkscape:window-x="0"
     inkscape:window-y="0"
     inkscape:window-maximized="1"
     inkscape:current-layer="svg534" />
  <title
     id="title526">馬</title>
  <!-- 此字型為全字庫正楷體，中華民國國家發展委員會，CNS11643中文標準交換碼全字庫網站，https://www.cns11643.gov.tw/。 -->
  <circle
     r="48.5"
     cx="50"
     cy="50"
     stroke-width="3"
     stroke="#000000"
     fill="#ffddaa"
     id="circle528" />
  <circle
     r="43.5"
     cx="50"
     cy="50"
     stroke-width="3"
     stroke="#000000"
     fill="none"
     id="circle530" />
  <path
     transform="translate(15,14)"
     fill="#000000"
     d="m 45.3,7.7 c -5.6,1.7 -19.7,3.2 -21.9,2.5 -1.6,-0.6 -3.6,-0.5 -4.2,0.1 -0.3,0.5 -0.3,0.9 0.3,2.1 1.1,2.2 1.3,5.1 0.8,11.6 -0.5,7 -0.9,9.7 -1.8,11.4 -0.7,1.5 -0.5,2.4 0.9,4.4 1.3,1.6 2,1.7 4.5,0.7 2.9,-1.2 6.2,-1.9 11.8,-2.5 5.8,-0.7 16.6,-1.3 17.7,-1 1.3,0.3 1.4,1.4 0.7,7 -1,8.1 -2.5,13 -4.2,13.4 -0.4,0 -2,-0.4 -3.6,-0.9 -2.6,-0.9 -2.9,-1 -3.4,-0.5 -0.5,0.5 -0.4,0.8 1.4,3.3 1.1,1.6 2.4,3.6 2.9,4.6 0.8,1.5 1.1,1.7 2.1,1.8 2.4,0.3 6.4,-3.4 8.1,-7.4 1.2,-2.8 1.7,-5.4 2.5,-11.9 0.5,-5.1 0.8,-6.6 1.5,-8 1.5,-2.9 1.3,-3.3 -3.1,-5.4 l -2.7,-1.3 -3.7,0.6 c -2.1,0.3 -6,0.7 -8.8,0.8 l -5,0.3 v -1.8 c 0,-2.2 -0.4,-2 6.1,-2.7 4.9,-0.6 6.3,-1 6.5,-2.2 0.2,-1.6 -3.7,-2.8 -7.3,-2.2 -1.3,0.2 -2.9,0.3 -3.6,0.3 -1.3,0 -1.3,0 -1.3,-1.3 0,-0.8 0.1,-1.5 0.3,-1.6 0.1,-0.1 2.2,-0.4 4.6,-0.7 5.3,-0.7 6.5,-1.1 6.9,-2 0.5,-1.8 -3.5,-3.1 -7.6,-2.5 -1.3,0.3 -2.8,0.4 -3.3,0.4 -0.8,0 -0.8,0 -0.5,-1.4 0.2,-0.9 0.4,-1.8 0.5,-2.2 0,-0.6 0.7,-0.8 5.5,-1.5 5.8,-0.8 6.9,-1.1 6.9,-2.2 0,-1.8 -3.6,-2.9 -6.5,-2.1 m -13,6.9 c 0.2,0.3 0.2,1.3 0.2,2.2 v 1.7 l -2.1,0.2 c -1.2,0.1 -2.8,0.2 -3.5,0.2 -1.3,0 -1.3,-0.1 -1.3,-1.1 0,-0.7 0.1,-1.8 0.2,-2.5 L 26,14 h 3.1 c 2.4,0 3.1,0.1 3.2,0.6 m 0.2,9.8 v 1.7 l -2.8,0.3 c -4.9,0.4 -4.9,0.4 -4.8,-0.9 0,-2.6 0,-2.6 4,-2.7 l 3.6,-0.1 v 1.7 m 0,8.1 v 2.1 L 30.4,35 c -1.2,0.2 -3.2,0.4 -4.3,0.6 -2.1,0.2 -2.1,0.2 -1.8,-0.6 0.1,-0.5 0.2,-1.6 0.2,-2.5 v -1.7 l 3.1,-0.1 c 1.6,-0.1 3.5,-0.1 4,-0.2 0.9,0 0.9,0 0.9,2 m 7.1,8.9 c -0.4,0.5 -0.4,0.7 0.1,1.5 1.1,1.7 5.2,6.2 6.3,6.8 1.3,0.9 2.7,0.4 3.5,-1.2 1.4,-3 0.2,-5 -4,-6.3 -4,-1.3 -5.4,-1.4 -5.9,-0.8 m -27.5,1 c -0.3,0.5 -0.6,1.4 -0.7,2 -0.2,0.7 -1,2.6 -1.8,4.2 -1.3,2.3 -1.5,3.2 -1.5,4.7 0,2.6 0.9,4.1 2.6,4.1 1,0 1.4,-0.2 2.2,-1.4 2.5,-3.4 3.5,-10.3 1.9,-13 -0.8,-1.4 -2,-1.7 -2.7,-0.6 m 17.6,1.1 c 0,1.1 3.1,5.7 4.6,7 1.4,1.2 1.9,1.2 3.2,-0.1 1,-1 1.1,-1.2 0.9,-2.8 -0.1,-1.2 -0.4,-2.1 -1,-2.6 -1,-1.2 -4.1,-2.3 -6.1,-2.3 -1.4,0 -1.6,0.1 -1.6,0.8 m -10,0.1 c -0.7,0.3 -0.5,1.1 1.2,4.2 2.1,3.9 4,5.5 5.6,4.4 1.2,-0.8 1.5,-3.6 0.6,-5.3 -0.8,-1.6 -6,-3.9 -7.4,-3.3"
     id="path532" />
  <metadata
     id="metadata18935">
    <rdf:RDF>
      <cc:Work
         rdf:about="">
        <dc:title>馬</dc:title>
      </cc:Work>
    </rdf:RDF>
  </metadata>
</svg>

<?xml version="1.0" encoding="UTF-8"?>
<svg width="100" height="100"
	xmlns="http://www.w3.org/2000/svg">
	<title>馬</title>
	<!-- 此字型為全字庫正楷體，中華民國國家發展委員會，CNS11643中文標準交換碼全字庫網站，https://www.cns11643.gov.tw/。 -->
	<circle r="48.5" cx="50" cy="50" stroke-width="3" stroke="#000" fill="#fda"/>
	<circle r="43.5" cx="50" cy="50" stroke-width="3" stroke="#000" fill="none"/>
	<path transform="translate(15,14)" fill="#000" d="M45.3 7.7 C39.7 9.4,25.6 10.9,23.4 10.2 C21.8 9.6,19.8 9.7,19.2 10.3 C18.9 10.8,18.9 11.2,19.5 12.4 C20.6 14.6,20.8 17.5,20.3 24.0 C19.8 31.0,19.4 33.7,18.5 35.4 C17.8 36.9,18.0 37.8,19.4 39.8 C20.7 41.4,21.4 41.5,23.9 40.5 C26.8 39.3,30.1 38.6,35.7 38.0 C41.5 37.3,52.3 36.7,53.4 37.0 C54.7 37.3,54.8 38.4,54.1 44.0 C53.1 52.1,51.6 57.0,49.9 57.4 C49.5 57.4,47.9 57.0,46.3 56.5 C43.7 55.6,43.4 55.5,42.9 56.0 C42.4 56.5,42.5 56.8,44.3 59.3 C45.4 60.9,46.7 62.9,47.2 63.9 C48.0 65.4,48.3 65.6,49.3 65.7 C51.7 66.0,55.7 62.3,57.4 58.3 C58.6 55.5,59.1 52.9,59.9 46.4 C60.4 41.3,60.7 39.8,61.4 38.4 C62.9 35.5,62.7 35.1,58.3 33.0 L55.6 31.7 51.9 32.3 C49.8 32.6,45.9 33.0,43.1 33.1 L38.1 33.4 38.1 31.6 C38.1 29.4,37.7 29.6,44.2 28.9 C49.1 28.3,50.5 27.9,50.7 26.7 C50.9 25.1,47.0 23.9,43.4 24.5 C42.1 24.7,40.5 24.8,39.8 24.8 C38.5 24.8,38.5 24.8,38.5 23.5 C38.5 22.7,38.6 22.0,38.8 21.9 C38.9 21.8,41.0 21.5,43.4 21.2 C48.7 20.5,49.9 20.1,50.3 19.2 C50.8 17.4,46.8 16.1,42.7 16.7 C41.4 17.0,39.9 17.1,39.4 17.1 C38.6 17.1,38.6 17.1,38.9 15.7 C39.1 14.8,39.3 13.9,39.4 13.5 C39.4 12.9,40.1 12.7,44.9 12.0 C50.7 11.2,51.8 10.9,51.8 9.8 C51.8 8.0,48.2 6.9,45.3 7.7 M32.3 14.6 C32.5 14.9,32.5 15.9,32.5 16.8 L32.5 18.5 30.4 18.7 C29.2 18.8,27.6 18.9,26.9 18.9 C25.6 18.9,25.6 18.8,25.6 17.8 C25.6 17.1,25.7 16.0,25.8 15.3 L26.0 14.0 29.1 14.0 C31.5 14.0,32.2 14.1,32.3 14.6 M32.5 24.4 L32.5 26.1 29.7 26.4 C24.8 26.8,24.8 26.8,24.9 25.5 C24.9 22.9,24.9 22.9,28.9 22.8 L32.5 22.7 32.5 24.4 M32.5 32.5 L32.5 34.6 30.4 35.0 C29.2 35.2,27.2 35.4,26.1 35.6 C24.0 35.8,24.0 35.8,24.3 35.0 C24.4 34.5,24.5 33.4,24.5 32.5 L24.5 30.8 27.6 30.7 C29.2 30.6,31.1 30.6,31.6 30.5 C32.5 30.5,32.5 30.5,32.5 32.5 M39.6 41.4 C39.2 41.9,39.2 42.1,39.7 42.9 C40.8 44.6,44.9 49.1,46.0 49.7 C47.3 50.6,48.7 50.1,49.5 48.5 C50.9 45.5,49.7 43.5,45.5 42.2 C41.5 40.9,40.1 40.8,39.6 41.4 M12.1 42.4 C11.8 42.9,11.5 43.8,11.4 44.4 C11.2 45.1,10.4 47.0,9.6 48.6 C8.3 50.9,8.1 51.8,8.1 53.3 C8.1 55.9,9.0 57.4,10.7 57.4 C11.7 57.4,12.1 57.2,12.9 56.0 C15.4 52.6,16.4 45.7,14.8 43.0 C14.0 41.6,12.8 41.3,12.1 42.4 M29.7 43.5 C29.7 44.6,32.8 49.2,34.3 50.5 C35.7 51.7,36.2 51.7,37.5 50.4 C38.5 49.4,38.6 49.2,38.4 47.6 C38.3 46.4,38.0 45.5,37.4 45.0 C36.4 43.8,33.3 42.7,31.3 42.7 C29.9 42.7,29.7 42.8,29.7 43.5 M19.7 43.6 C19.0 43.9,19.2 44.7,20.9 47.8 C23.0 51.7,24.9 53.3,26.5 52.2 C27.7 51.4,28.0 48.6,27.1 46.9 C26.3 45.3,21.1 43.0,19.7 43.6 "/>
</svg>
